Newaita-dark/actions/scalable/edit-table-insert-row-below.svg

<?xml version="1.0" encoding="UTF-8"?>
<svg xmlns="http://www.w3.org/2000/svg" xmlns:xlink="http://www.w3.org/1999/xlink" width="512pt" height="512pt" viewBox="0 0 512 512" version="1.1">
<g id="surface1">
<path style=" stroke:none;fill-rule:nonzero;fill:rgb(74.117649%,74.117649%,74.117649%);fill-opacity:1;" d="M 26.460938 56.921875 C 26.460938 45.195312 35.902344 35.753906 47.628906 35.753906 L 460.417969 35.753906 C 472.148438 35.753906 481.589844 45.195312 481.589844 56.921875 L 481.589844 459.128906 C 481.589844 459.140625 481.589844 459.15625 481.589844 459.167969 L 481.589844 310.945312 L 449.835938 310.945312 L 449.835938 205.101562 L 343.992188 205.101562 L 343.992188 310.945312 L 312.238281 310.945312 L 312.238281 205.101562 L 206.394531 205.101562 L 206.394531 310.945312 L 174.640625 310.945312 L 174.640625 205.101562 L 58.214844 205.101562 L 58.214844 480.296875 L 47.628906 480.296875 C 35.902344 480.296875 26.460938 470.855469 26.460938 459.128906 Z M 58.214844 78.089844 L 58.214844 173.351562 L 174.640625 173.351562 L 174.640625 67.507812 L 68.796875 67.507812 C 62.933594 67.507812 58.214844 72.226562 58.214844 78.089844 Z M 206.394531 67.507812 L 206.394531 173.351562 L 312.238281 173.351562 L 312.238281 67.507812 Z M 343.992188 67.507812 L 343.992188 173.351562 L 449.835938 173.351562 L 449.835938 78.089844 C 449.835938 72.226562 445.113281 67.507812 439.25 67.507812 Z M 343.992188 67.507812 "/>
<path style=" stroke:none;fill-rule:nonzero;fill:rgb(100%,43.921569%,26.274511%);fill-opacity:1;" d="M 58.214844 480.296875 L 259.316406 480.296875 L 259.316406 448.542969 L 208.964844 448.542969 L 103.121094 342.699219 L 173.359375 342.699219 L 259.316406 428.65625 L 259.316406 383.753906 L 218.261719 342.699219 L 259.316406 342.699219 L 259.316406 310.945312 L 58.214844 310.945312 L 58.214844 342.699219 L 164.058594 448.542969 L 58.214844 448.542969 Z M 58.214844 480.296875 "/>
<path style=" stroke:none;fill-rule:nonzero;fill:rgb(40.000001%,73.333335%,41.568628%);fill-opacity:1;" d="M 312.238281 395.621094 C 312.238281 386.824219 319.320312 379.746094 328.113281 379.746094 L 381.035156 379.746094 L 381.035156 326.824219 C 381.035156 318.027344 388.117188 310.945312 396.914062 310.945312 C 405.707031 310.945312 412.789062 318.027344 412.789062 326.824219 L 412.789062 379.746094 L 465.710938 379.746094 C 474.507812 379.746094 481.585938 386.824219 481.585938 395.621094 C 481.585938 404.417969 474.507812 411.496094 465.710938 411.496094 L 412.789062 411.496094 L 412.789062 464.417969 C 412.789062 473.214844 405.707031 480.296875 396.914062 480.296875 C 388.117188 480.296875 381.035156 473.214844 381.035156 464.417969 L 381.035156 411.496094 L 328.113281 411.496094 C 319.320312 411.496094 312.238281 404.417969 312.238281 395.621094 Z M 312.238281 395.621094 "/>
</g>
</svg>

<svg xmlns="http://www.w3.org/2000/svg" width="512pt" height="512pt" viewBox="0 0 512 512"><path d="M26.46 56.922A21.122 21.122 0 0 1 47.63 35.754h412.789a21.123 21.123 0 0 1 21.172 21.168v402.246-148.223h-31.754V205.102H343.992v105.843h-31.754V205.102H206.395v105.843H174.64V205.102H58.215v275.195H47.629a21.122 21.122 0 0 1-21.168-21.168zM58.216 78.09v95.262H174.64V67.508H68.797A10.558 10.558 0 0 0 58.215 78.09zm148.18-10.582v105.844h105.843V67.508zm137.597 0v105.844h105.844V78.09a10.561 10.561 0 0 0-10.586-10.582zm0 0" fill="#bdbdbd"/><path d="M58.215 480.297h201.101v-31.754h-50.351L103.12 342.699h70.238l85.957 85.957v-44.902l-41.054-41.055h41.054v-31.754H58.215V342.7l105.844 105.844H58.215zm0 0" fill="#ff7043"/><path d="M312.238 395.621a15.84 15.84 0 0 1 15.875-15.875h52.922v-52.922a15.844 15.844 0 0 1 15.88-15.879 15.843 15.843 0 0 1 15.874 15.88v52.921h52.922a15.838 15.838 0 0 1 15.875 15.875 15.838 15.838 0 0 1-15.875 15.875h-52.922v52.922a15.843 15.843 0 0 1-15.875 15.879 15.844 15.844 0 0 1-15.879-15.879v-52.922h-52.922a15.84 15.84 0 0 1-15.875-15.875zm0 0" fill="#66bb6a"/></svg>
